src/next/cmd/lc_datadatapilotrun.svg

<svg height="24" width="24" xmlns="http://www.w3.org/2000/svg" xmlns:xlink="http://www.w3.org/1999/xlink"><linearGradient id="a" gradientUnits="userSpaceOnUse" x1="126.869905" x2="126.869905" y1="-29.090338" y2="104.725963"><stop offset="0" stop-color="#48940b" stop-opacity=".831373"/><stop offset="1" stop-color="#48940b" stop-opacity=".831373"/></linearGradient><linearGradient id="b" gradientUnits="userSpaceOnUse" x1="21.50013440625" x2="21.803798" y1="-1.99984004688" y2="24.00248296875"><stop offset="0" stop-color="#fff"/><stop offset="1" stop-color="#555"/></linearGradient><linearGradient id="c" gradientTransform="matrix(.15944229 0 0 1.4229404 10.786026 -14.92908)" gradientUnits="userSpaceOnUse" x1="46.048" x2="46.048" y1="128.01709" y2="16.6203"><stop offset="0" stop-color="#c7cdd7"/><stop offset="1" stop-color="#fff"/></linearGradient><linearGradient id="d" gradientTransform="matrix(.86194072 0 0 1.0908937 4.740838 -18.90866)" gradientUnits="userSpaceOnUse" x1="8" x2="80" y1="36" y2="112"><stop offset="0" stop-color="#c8ffa5"/><stop offset="1" stop-color="#dfffcb"/></linearGradient><linearGradient id="e" gradientTransform="matrix(-.72842389 0 0 .72842389 142.34975 70.326298)" gradientUnits="userSpaceOnUse" x1="113.15723" x2="-12.496982" y1="25.786163" y2="111.87242"><stop offset="0" stop-color="#bbd6ff"/><stop offset="1" stop-color="#0057ae"/></linearGradient><linearGradient id="f" gradientTransform="matrix(2.9353705 0 0 -2.9353705 -202.71344 270.45937)" gradientUnits="userSpaceOnUse" x1="104" x2="104" y1="120" y2="57.11084"><stop offset="0" stop-color="#d4e2f3"/><stop offset="1" stop-color="#fff" stop-opacity="0"/></linearGradient><linearGradient id="g" gradientUnits="userSpaceOnUse" x1="54.939537" x2="116.538628" y1="74.293155" y2="74.293155"><stop offset="0" stop-color="#fff"/><stop offset="1" stop-color="#fff" stop-opacity="0"/></linearGradient><filter id="h" color-interpolation-filters="sRGB" height="1.024067" width="1.023933" x="-.011966" y="-.012034"><feGaussianBlur stdDeviation=".30713451"/></filter><linearGradient id="i" gradientUnits="userSpaceOnUse" x1="63.993828" x2="104.720528" y1="52.375712" y2="98.920512"><stop offset="0" stop-color="#2c72c7"/><stop offset="1" stop-color="#00438a"/></linearGradient><g transform="matrix(.171875 0 0 .171875 -.000148 .996689)"><path d="m11.636364 11.636364h17.4543l.0011 110.564716h-17.4543z" fill="url(#c)"/><path d="m1 3v1 2.9960938.00977h-.001953v1 2.9960936 1 3.001953.998047 2.9980426.0059.992188.01172 2.992187 1.003906h.9999999 3.0019531.9980469v-4.005901h.0019531v-6.5-5.5058594-.9980468-2.9960938-1h-.9980469-3.0019531zm1 1h3.0019531v2.9960938h-3.0019531zm0 4.0058594h3v2.9921876h-3zm0 3.9960936h3v2.992188h-3zm0 4.001953h3v2.992188h-3zm-.00195 4.00586h3.00195v2.992187h-3.0019531z" fill="url(#b)" stroke-width=".171875" transform="matrix(5.8181818 0 0 5.8181818 .000082 -11.618033)"/><path d="m11.636364 11.636364 116.363716.01833v17.4543l-116.363716-.01833z" fill="url(#d)"/><path d="m102.00399 43.665797-14.555862 14.709916 11.6418-.01265c3.427012 28.243454-23.269373 36.652778-41.266228 35.089106l.358978-11.978362-15.05429 14.892425 15.05429 14.198068-.358978-11.284006c29.512283 4.675176 50.25451-15.346267 47.09435-40.917231l11.62058.01265z" fill="none" stroke="url(#i)" stroke-linecap="round" stroke-linejoin="round" stroke-width="8"/><path d="m102.00399 43.665797-14.555862 14.709916 11.6418-.01265c3.427012 28.243454-23.269373 36.652778-41.266228 35.089106l.358978-11.978362-15.05429 14.892425 15.05429 14.198068-.358978-11.284006c29.512283 4.675176 50.25451-15.346267 47.09435-40.917231l11.62058.01265z" fill="url(#e)" fill-rule="evenodd"/><path d="m102.00423 43.665569-11.179683 11.298828v3.408204l8.265625-.0098c1.868098 15.395785-5.264051 25.249069-11.816585 28.929188v7.65625c11.636364-7.65625 19.858593-18.671371 17.644703-36.585404l9.38868.01172v-2.257813z" fill="url(#f)" fill-rule="evenodd"/><path d="m102.00399 43.665797-14.555862 14.709916 11.6418-.01265c3.427012 28.243454-23.269373 36.652778-41.266228 35.089106l.358978-11.978362-15.05429 14.892425 15.05429 14.198068-.358978-11.284006c29.512283 4.675176 50.25451-15.346267 47.09435-40.917231l11.62058.01265z" fill="none" filter="url(#h)" stroke="url(#g)" stroke-width=".7"/><path d="m5.8190415 5.8374436v5.8125004 17.4375 5.812501.0098h5.8125005v-.0098h17.46875v.0098h5.808594.0039v-.0098l29.08729.0047h5.812503l29.102329-.0078v.0078h5.818362v-.0098l17.45431.0042v.0098h5.8125v-.0098h.008v-5.812526h-.008v-17.437456h.008v-5.8125h-.008-5.8125l-52.375001.00565h-5.812503l-29.08729-.0048h-5.8125-17.46875zm5.8125005 5.8125004h17.46875v17.4375h-17.46875zm23.28125 0 29.08729.0047v17.4375l-29.08729-.0047zm87.274798-.00088v17.437501l-17.45432-.0042v-17.437501zm-23.272682-.0022v17.437501l-29.102323.0079v-17.437551z" fill="url(#a)"/></g></svg>

<?xml version="1.0" encoding="UTF-8" standalone="no"?>
<svg
   xmlns:dc="http://purl.org/dc/elements/1.1/"
   xmlns:cc="http://creativecommons.org/ns#"
   xmlns:rdf="http://www.w3.org/1999/02/22-rdf-syntax-ns#"
   xmlns:svg="http://www.w3.org/2000/svg"
   xmlns="http://www.w3.org/2000/svg"
   xmlns:xlink="http://www.w3.org/1999/xlink"
   xmlns:sodipodi="http://sodipodi.sourceforge.net/DTD/sodipodi-0.dtd"
   xmlns:inkscape="http://www.inkscape.org/namespaces/inkscape"
   height="24"
   width="24"
   version="1.1"
   id="svg61"
   sodipodi:docname="lc_datadatapilotrun.svg"
   inkscape:version="0.92.4 (unknown)"
   inkscape:export-filename="/home/rizmut/Dokumen/Rizmut/Github/libreoffice-style-karasa-jaga/build/next/cmd/lc_datadatapilotrun.png"
   inkscape:export-xdpi="96"
   inkscape:export-ydpi="96">
  <metadata
     id="metadata67">
    <rdf:RDF>
      <cc:Work
         rdf:about="">
        <dc:format>image/svg+xml</dc:format>
        <dc:type
           rdf:resource="http://purl.org/dc/dcmitype/StillImage" />
        <dc:title></dc:title>
      </cc:Work>
    </rdf:RDF>
  </metadata>
  <defs
     id="defs65">
    <linearGradient
       inkscape:collect="always"
       xlink:href="#d"
       id="linearGradient909"
       gradientUnits="userSpaceOnUse"
       gradientTransform="translate(-5.8235353,-5.8070874)"
       x1="132.69344"
       y1="-23.283251"
       x2="132.69344"
       y2="110.53305" />
    <linearGradient
       id="linearGradient875"
       gradientUnits="userSpaceOnUse"
       x1="132.69344"
       x2="132.69344"
       y1="-23.283251"
       y2="110.53305"
       gradientTransform="translate(-5.8235354,-5.8070876)">
      <stop
         offset="0"
         stop-color="#48940b"
         stop-opacity=".831373"
         id="stop17-3" />
      <stop
         offset="1"
         stop-color="#48940b"
         stop-opacity=".831373"
         id="stop19-6" />
    </linearGradient>
    <linearGradient
       inkscape:collect="always"
       xlink:href="#b"
       id="linearGradient883"
       gradientUnits="userSpaceOnUse"
       gradientTransform="matrix(0.171875,0,0,0.171875,-1.0028873,5.0046151)"
       x1="130.92667"
       y1="-40.753193"
       x2="132.69344"
       y2="110.53305" />
  </defs>
  <sodipodi:namedview
     pagecolor="#ffffff"
     bordercolor="#666666"
     borderopacity="1"
     objecttolerance="10"
     gridtolerance="10"
     guidetolerance="10"
     inkscape:pageopacity="0"
     inkscape:pageshadow="2"
     inkscape:window-width="1366"
     inkscape:window-height="714"
     id="namedview63"
     showgrid="true"
     inkscape:zoom="20.85965"
     inkscape:cx="11.20413"
     inkscape:cy="9.4178519"
     inkscape:window-x="0"
     inkscape:window-y="28"
     inkscape:window-maximized="1"
     inkscape:current-layer="svg61">
    <inkscape:grid
       type="xygrid"
       id="grid877" />
  </sodipodi:namedview>
  <linearGradient
     id="a"
     gradientTransform="matrix(0.15944229,0,0,1.4229404,10.786026,-14.92908)"
     gradientUnits="userSpaceOnUse"
     x1="46.048"
     x2="46.048"
     y1="128.01709"
     y2="16.6203">
    <stop
       offset="0"
       stop-color="#c7cdd7"
       id="stop2" />
    <stop
       offset="1"
       stop-color="#fff"
       id="stop4" />
  </linearGradient>
  <linearGradient
     id="b"
     gradientUnits="userSpaceOnUse"
     x1="132.69344"
     x2="132.69344"
     y1="-23.283251"
     y2="110.53305"
     gradientTransform="matrix(0.171875,0,0,0.171875,-1.0009342,0.99875622)">
    <stop
       offset="0"
       stop-color="#fff"
       id="stop7" />
    <stop
       offset="1"
       stop-color="#555"
       id="stop9" />
  </linearGradient>
  <linearGradient
     id="c"
     gradientTransform="matrix(0.86194072,0,0,1.0908937,4.7408376,-18.90866)"
     gradientUnits="userSpaceOnUse"
     x1="8"
     x2="80"
     y1="36"
     y2="112">
    <stop
       offset="0"
       stop-color="#c8ffa5"
       id="stop12" />
    <stop
       offset="1"
       stop-color="#dfffcb"
       id="stop14" />
  </linearGradient>
  <linearGradient
     id="d"
     gradientUnits="userSpaceOnUse"
     x1="132.69344"
     x2="132.69344"
     y1="-23.283251"
     y2="110.53305"
     gradientTransform="translate(-5.8235354,-5.8070876)">
    <stop
       offset="0"
       stop-color="#48940b"
       stop-opacity=".831373"
       id="stop17" />
    <stop
       offset="1"
       stop-color="#48940b"
       stop-opacity=".831373"
       id="stop19" />
  </linearGradient>
  <linearGradient
     id="e"
     gradientTransform="matrix(-0.72842389,0,0,0.72842389,142.34975,70.326298)"
     gradientUnits="userSpaceOnUse"
     x1="113.15723"
     x2="-12.496982"
     y1="25.786163"
     y2="111.87242">
    <stop
       offset="0"
       stop-color="#bbd6ff"
       id="stop22" />
    <stop
       offset="1"
       stop-color="#0057ae"
       id="stop24" />
  </linearGradient>
  <linearGradient
     id="f"
     gradientTransform="matrix(2.9353705,0,0,-2.9353705,-202.71344,270.45937)"
     gradientUnits="userSpaceOnUse"
     x1="104"
     x2="104"
     y1="120"
     y2="57.11084">
    <stop
       offset="0"
       stop-color="#d4e2f3"
       id="stop27" />
    <stop
       offset="1"
       stop-color="#fff"
       stop-opacity="0"
       id="stop29" />
  </linearGradient>
  <linearGradient
     id="g"
     gradientUnits="userSpaceOnUse"
     x1="49.126709"
     x2="110.7258"
     y1="80.100243"
     y2="80.100243"
     gradientTransform="translate(5.8128282,-5.8070876)">
    <stop
       offset="0"
       stop-color="#fff"
       id="stop32" />
    <stop
       offset="1"
       stop-color="#fff"
       stop-opacity="0"
       id="stop34" />
  </linearGradient>
  <filter
     id="h"
     height="1.024067"
     width="1.0239331"
     x="-0.011966"
     y="-0.012034"
     style="color-interpolation-filters:sRGB">
    <feGaussianBlur
       stdDeviation=".30713451"
       id="feGaussianBlur37" />
  </filter>
  <linearGradient
     id="i"
     gradientUnits="userSpaceOnUse"
     x1="58.181"
     x2="98.9077"
     y1="58.1828"
     y2="104.7276"
     gradientTransform="translate(5.8128282,-5.8070876)">
    <stop
       offset="0"
       stop-color="#2c72c7"
       id="stop40" />
    <stop
       offset="1"
       stop-color="#00438a"
       id="stop42" />
  </linearGradient>
  <g
     id="g890"
     transform="matrix(0.171875,0,0,0.171875,-1.4775781e-4,0.99668938)">
    <path
       id="path45"
       d="m 11.636364,11.636364 h 17.4543 l 0.0011,110.564716 h -17.4543 z"
       style="fill:url(#a)"
       inkscape:connector-curvature="0"
       sodipodi:nodetypes="ccccc" />
    <path
       style="fill:url(#linearGradient883);stroke-width:0.171875"
       d="m 1,3 v 1 2.9960938 0.00977 h -0.001953 v 1 2.9960936 1 3.001953 0.998047 V 19 v 0.0059 0.992188 0.01172 2.992187 1.003906 H 1.9980469 5 5.9980469 V 20 H 6 V 13.5 7.9941406 6.9960938 4 3 H 5.0019531 2 Z M 2,4 H 5.0019531 V 6.9960938 H 2 Z M 2,8.0058594 H 5 V 10.998047 H 2 Z m 0,3.9960936 h 3 v 2.992188 H 2 Z m 0,4.001953 h 3 v 2.992188 H 2 Z m -0.00195,4.00586 H 5 v 2.992187 H 1.9980469 Z"
       transform="matrix(5.8181818,0,0,5.8181818,8.1781818e-5,-11.618033)"
       id="path881"
       inkscape:connector-curvature="0" />
    <path
       id="path49"
       d="m 11.636364,11.636364 116.363716,0.01833 v 17.4543 L 11.636364,29.090664 Z"
       style="fill:url(#c)"
       inkscape:connector-curvature="0"
       sodipodi:nodetypes="ccccc" />
    <path
       id="path53"
       d="m 102.00399,43.665797 -14.555862,14.709916 11.6418,-0.01265 C 102.51694,86.606517 75.820555,95.015841 57.8237,93.452169 L 58.182678,81.473807 43.128388,96.366232 58.182678,110.5643 57.8237,99.280294 c 29.512283,4.675176 50.25451,-15.346267 47.09435,-40.917231 l 11.62058,0.01265 z"
       style="fill:none;stroke:url(#i);stroke-width:8;stroke-linecap:round;stroke-linejoin:round"
       inkscape:connector-curvature="0"
       sodipodi:nodetypes="ccccccccccc" />
    <path
       id="path55"
       d="m 102.00399,43.665797 -14.555862,14.709916 11.6418,-0.01265 C 102.51694,86.606517 75.820555,95.015841 57.8237,93.452169 L 58.182678,81.473807 43.128388,96.366232 58.182678,110.5643 57.8237,99.280294 c 29.512283,4.675176 50.25451,-15.346267 47.09435,-40.917231 l 11.62058,0.01265 z"
       style="fill:url(#e);fill-rule:evenodd"
       inkscape:connector-curvature="0"
       sodipodi:nodetypes="ccccccccccc" />
    <path
       id="path57"
       d="M 102.00423,43.665569 90.824547,54.964397 v 3.408204 l 8.265625,-0.0098 C 100.95827,73.758586 93.826121,83.61187 87.273587,87.291989 v 7.65625 C 98.909951,87.291989 107.13218,76.276868 104.91829,58.362835 l 9.38868,0.01172 v -2.257813 z"
       style="fill:url(#f);fill-rule:evenodd"
       inkscape:connector-curvature="0"
       sodipodi:nodetypes="cccccccccc" />
    <path
       id="path59"
       d="m 102.00399,43.665797 -14.555862,14.709916 11.6418,-0.01265 C 102.51694,86.606517 75.820555,95.015841 57.8237,93.452169 L 58.182678,81.473807 43.128388,96.366232 58.182678,110.5643 57.8237,99.280294 c 29.512283,4.675176 50.25451,-15.346267 47.09435,-40.917231 l 11.62058,0.01265 z"
       style="fill:none;stroke:url(#g);stroke-width:0.69999999;filter:url(#h)"
       inkscape:connector-curvature="0"
       sodipodi:nodetypes="ccccccccccc" />
    <path
       inkscape:connector-curvature="0"
       style="fill:url(#linearGradient909);stroke-width:1"
       d="m 5.8190415,5.8374436 v 5.8125004 17.4375 5.812501 0.0098 h 5.8125005 v -0.0098 h 17.46875 v 0.0098 h 5.808594 0.0039 v -0.0098 l 29.08729,0.0047 h 5.812503 l 29.102329,-0.0078 v 0.0078 h 5.818362 v -0.0098 l 17.45431,0.0042 v 0.0098 h 5.8125 v -0.0098 h 0.008 v -5.812526 h -0.008 V 11.649063 h 0.008 v -5.8125 h -0.008 -5.8125 l -52.375001,0.00565 h -5.812503 l -29.08729,-0.0048 h -5.8125 -17.46875 z m 5.8125005,5.8125004 h 17.46875 v 17.4375 h -17.46875 z m 23.28125,0 29.08729,0.0047 v 17.4375 l -29.08729,-0.0047 z m 87.274798,-8.8e-4 v 17.437501 l -17.45432,-0.0042 V 11.644864 Z m -23.272682,-0.0022 v 17.437501 l -29.102323,0.0079 V 11.654714 Z"
       id="path892"
       sodipodi:nodetypes="cccccccccccccccccccccccccccccccccccccccccccccccccccccccc" />
  </g>
</svg>
